packages/icons/svg/Outline/checkmark.svg

<svg width="24" height="24" viewBox="0 0 24 24" fill="none" xmlns="http://www.w3.org/2000/svg">
<g id="Icon/Outline/checkmark">
<path id="Mask" fill-rule="evenodd" clip-rule="evenodd" d="M9.86338 18C9.58738 18 9.32338 17.886 9.13438 17.685L4.27138 12.506C3.89238 12.104 3.91338 11.471 4.31538 11.093C4.71838 10.715 5.35138 10.735 5.72838 11.137L9.85338 15.528L18.2614 6.32599C18.6354 5.91699 19.2674 5.88999 19.6754 6.26199C20.0824 6.63399 20.1104 7.26699 19.7384 7.67399L10.6014 17.674C10.4144 17.88 10.1484 17.998 9.87038 18H9.86338Z" fill="#000000"/>
</g>
</svg>

<svg fill="none" height="24" viewBox="0 0 24 24" width="24" xmlns="http://www.w3.org/2000/svg"><path clip-rule="evenodd" d="m9.86326 18.0001c-.276 0-.54-.114-.729-.315l-4.863-5.179c-.379-.402-.358-1.035.044-1.413.403-.378 1.036-.358 1.413.044l4.125 4.391 8.40804-9.20199c.374-.409 1.006-.436 1.414-.064.407.372.435 1.005.063 1.412l-9.137 9.99999c-.187.206-.453.324-.73104.326z" fill="#6b7280" fill-rule="evenodd"/></svg>
